!!!!SEGMENT: pl-kk--kk-i-497--002_anonim--o-sacrum-convivium.krn
!!!cenid: 18xx:1337
!!!COM: Anonim
!!!COM-rismID: pe30004985
!!!CDT:
!!!CNT:
!!!OTL: O sacrum convivium
!!!PDT:
!!!AGN: Sacred
!!!SMS-siglum: PL-Kk
!!!SMS-shelfmark: Kk.I.497
!!!SMS-shelfwork: 002 W
!!!SMS-variant: PL-Kk Kk.I.497:0024
!!!SMS-altvar: PL-Kk Kk.I.497:0025
!!!NIFC-rismSourceID: 1001137215
!!!NIFC-rismChildID: 1001137233
!!!NIFC-islandoraID: pl-kk:14594
!!!URL-pdf-islandora: https://repozytorium.nifc.pl/islandora/object/pl-kk%3A14594/datastream/PDF/view
!!!URL-scan: https://polish.musicsources.pl/pl/lokalizacje/galeria/rekopisy/6105 @EN{Scan on Polish Music Sources Website} @PL{Skany w portalu Dziedzictwo Muzyki Polskiej w otwartym dostępie}
!!!IIIF:
!!!ONB-nifc:
!!!AIN: 1 bass
!!!key:
**kern	**text
*Ibass	*
*I"[Basso. Vocali]	*
*I'B	*
*clefF4	*
*k[]	*
*f:	*
*M2/2	*
*met(c|)	*
=1	=1
*2\right	*
!LO:TX:t=P:problem=brak nazwy głosu, brak oznaczenia tempa	!
1C	O
=2	=2
1D	sa-
=3	=3
2E\	-crum
2F\	con-
=4	=4
2.D\	-vi-
4D\	-vi-
=5	=5
2C/	-um
[2C/	in
!LO:LB:g=original	!
=6	=6
2C/]	.
2G\	quo
=7	=7
2A\	Chri-
2F#X\	-stus
=8	=8
2.G\	su-
4G\	-mi-
=9	=9
2D\	-tur
2D\	re-
=10	=10
2.D#X\	-co-
4D#\	-li-
!LO:LB:g=original	!
=11	=11
2E\	-tur
2C/	me-
=12	=12
[>1BB	-mo-
=13	=13
2BB/]	.
2BB/	-ri-
=14	=14
2E\	-am
[2E\	pas-
=15	=15
2E\]	.
2D\	-si-
!LO:LB:g=original	!
=16	=16
2C/	-o-
2BB/	-nis
=17	=17
1AA	e-
=18	=18
2GG/	-jus
2r	.
=19	=19
!LO:TX:a:t=2	!
1r	.
=20	=20
1r	.
=21	=21
2r	.
[2F\	mens
=22	=22
2F\]	.
2D\	im-
!LO:LB:g=original	!
=23	=23
1G	-ple-
=24	=24
1E	-tur
=25	=25
2.A\	gra-
4G\	-ti-
=26	=26
2F\	-a
2r	.
=27	=27
2.D\	et
4D\	fu-
=28	=28
2C/	-tu-
2E\	-ra
!LO:LB:g=original	!
=29	=29
2.G\	glo-
4G\	-ri-
=30	=30
1G	-a
=31	=31
2.G#X\	no-
4G#\	-bis
=32	=32
2A\	pi-
2Gn\	-gnus
=33	=33
2F\	da-
2E\	-tur
!LO:LB:g=original	!
=34	=34
2D\	no-
2C/	-bis
=35	=35
2BB/	pi-
2C/	-gnus
=36	=36
[>1GG	da-
=37	=37
1GG]	.
=38	=38
2C/	-tur
[>2C/	no-
!LO:LB:g=original	!
=39	=39
2C/]	.
2E\	-bis
=40	=40
2F\	pi-
2C/	-gnus
=41	=41
!LO:N:vis=0	!
1F	da-
=42	=42
!LO:N:vis=0	!
1C	-tur.
==	==
*-	*-
!!!RDF**kern: >= above
!!!RDF**kern: <= below
!!!ENC: Anna Matuszewska
!!!END: 2021-01-02
!!!ENC: Andrzej Gręziak
!!!END: 2020-12-30
!!!YEC: Copyright 2022 Narodowy Instytut Fryderyka Chopina (https://polishscores.org)
!!!YEM: License CC-BY-4.0 (https://creativecommons.org/licenses/by/4.0)
